assets/icons/heart-broke.svg

<svg width="25" height="25" viewBox="0 0 25 25" fill="none" xmlns="http://www.w3.org/2000/svg">
<path d="M10.0518 6.04285C10.9242 6.39638 11.7023 6.99573 12.3333 7.79305L14.2659 9.66225C14.4739 9.86338 14.5283 10.1757 14.4007 10.4354L11.6667 15.9997C11.2222 16.7775 10.7333 18.5997 12.3333 19.6664C11.9022 19.6664 11.4801 19.5498 11.117 19.3303C10.0864 18.7053 8.10688 17.4226 6.43165 15.8564C4.37586 13.9335 3.33334 12.1226 3.33334 10.472C3.33334 9.32505 3.69252 8.27412 4.37216 7.43325C5.01664 6.63374 5.92704 6.06195 6.95711 5.80978C7.98721 5.55761 9.07714 5.6397 10.0518 6.04285Z" fill="white"/>
<path opacity="0.4" d="M17.7095 5.80978C18.7395 6.06195 19.6499 6.63374 20.2944 7.43325C20.9741 8.27412 21.3333 9.32505 21.3333 10.472C21.3333 12.1226 20.2907 13.9342 18.2349 15.8564C16.5597 17.4226 14.5793 18.7053 13.5496 19.3303C13.1865 19.5498 12.7643 19.6664 12.3333 19.6664C10.7333 18.5997 11.2221 16.7775 11.6666 15.9997L16.0078 10.108C16.1969 9.85145 16.1779 9.49692 15.9625 9.26205L13.5496 6.63024C13.8845 6.3922 14.241 6.19514 14.6147 6.04285C15.5895 5.6397 16.6794 5.55761 17.7095 5.80978Z" fill="white"/>
</svg>

<svg xmlns="http://www.w3.org/2000/svg" width="25" height="25" fill="none" viewBox="0 0 25 25"><path fill="#fff" d="M10.052 6.043c.872.353 1.65.953 2.281 1.75l1.933 1.87a.67.67 0 0 1 .135.772L11.667 16c-.445.777-.934 2.6.666 3.666a2.35 2.35 0 0 1-1.216-.336c-1.03-.625-3.01-1.907-4.685-3.474-2.056-1.922-3.099-3.733-3.099-5.384 0-1.147.36-2.198 1.04-3.039A4.77 4.77 0 0 1 6.956 5.81a5 5 0 0 1 3.095.233"/><path fill="#fff" d="M17.71 5.81a4.77 4.77 0 0 1 2.584 1.623c.68.841 1.04 1.892 1.04 3.039 0 1.65-1.043 3.462-3.1 5.384-1.674 1.567-3.655 2.85-4.684 3.474-.364.22-.786.336-1.217.336-1.6-1.066-1.11-2.889-.666-3.666l4.34-5.892a.67.67 0 0 0-.045-.846L13.55 6.63a5.3 5.3 0 0 1 1.065-.587 5 5 0 0 1 3.094-.233" opacity="0.4"/></svg>
